!!!COM: Mozart, Wolfgang Amadeus
!!!OPR: Quartet in A Major
!!!OTL:
!!!OMV: 1
!!!SCT: K 464
!!!SCA: Chronologisch-thematisches Verzeichnis sämtlicher Tonwerke Wolfgang Amade Mozarts (L. von Köchel; 1862, 2/1905, 3/1937, 1947)
!!!YOR: Breitkopf & Härtel Edition
!!!EED: Frances Bennion
!!!ENC: Frances Bennion
!!!CDT: 1756/1/27/-1791/12/5/
!!!OCY: Österreich
!!!YEC: Copyright (c) 1994, 2000 Center for Computer Assisted Research in the Humanities
!!!YEM: Rights to all derivative editions reserved.
!!!YEM: Refer to licensing agreement for further details.
!!!YEN: United States of America
**kern	**kern	**kern	**kern
*k[f#c#g#]	*k[f#c#g#]	*k[f#c#g#]	*k[f#c#g#]
*A:	*A:	*A:	*A:
*clefG	*clefG	*clefF	*clefC
*M3/4	*M3/4	*M3/4	*M3/4
=0-	=0-	=0-	=0-
2r	2r	2r	2r
4ee	4c#	4a	4A
=1	=1	=1	=1
4.ee	2c#	2a	2A
8dd#	.	.	.
8ff#	4r	4r	4r
8ee	.	.	.
=2	=2	=2	=2
8dd	2.r	2.r	2.r
8cc#	.	.	.
8ee	.	.	.
8dd	.	.	.
8cc#	.	.	.
8b	.	.	.
=3	=3	=3	=3
4a	4e	4e	4c#
4b	4e 4d	4g#	4B
4cc#	4e 4c#	4a	4A
=4	=4	=4	=4
4dd	4e 4B	4b	4G#
4r	4r	4r	4r
4dd	4B	4g#	4E
=5	=5	=5	=5
4.dd	2B	2g#	2E
8cc#	.	.	.
8ee	4r	4r	4r
8dd	.	.	.
=6	=6	=6	=6
8cc#	2.r	2.r	2.r
8b	.	.	.
8dd	.	.	.
8cc#	.	.	.
8b	.	.	.
8a	.	.	.
=7	=7	=7	=7
4g#	4e	4e	2.E
4a	4f#	4d#	.
4b	4g#	4d	.
=8	=8	=8	=8
4cc#	4a	4c#	4AA
4r	4r	4r	4r
4A	4A	4A	4AA
=9	=9	=9	=9
4.A	4.A	4.A	4.AA
8c#	8c#	8c#	8C#
8d	8d	8d	8D
8c#	8c#	8c#	8C#
=10	=10	=10	=10
4B	4B	4B	4BB
4r	4r	4r	4r
4B	4B	4B	4BB
=11	=11	=11	=11
4.B	4.B	4.B	4.BB
8d#	8d#	8d#	8D#
8e	8e	8e	8E
8d	8d	8d	8D
=12	=12	=12	=12
4c#	4c#	4c#	4C#
4r	4r	4r	4r
4aa	4a	4e	4c#
=13	=13	=13	=13
4.aa	[2.a	2.e	2.c#
8ccc#	.	.	.
8bb	.	.	.
8aa	.	.	.
=14	=14	=14	=14
8gg#	4a]	4d	4d
8ff#	.	.	.
8ee	8g#	2r	2r
8dd	8f#	.	.
8cc#	8e	.	.
8b	8d	.	.
=15	=15	=15	=15
2a	8c#	2r	4E
.	8e	.	.
.	8c#	.	4E
.	8e	.	.
8cc#	8d	4G#	4E
8b	8e	.	.
=16	=16	=16	=16
4a	4c#	4A	4AA
2r	4r	4r	4r
.	4ee	4c	4A
=17	=17	=17	=17
2.r	4.ee	2c	2A
.	8dd#	.	.
.	8ff	4r	4r
.	8ee	.	.
=18	=18	=18	=18
2.r	8dd	2r	2.r
.	8cc	.	.
.	8ee	.	.
.	8dd	.	.
.	8cc	4f	.
.	8b	.	.
=19	=19	=19	=19
2.r	4a	4.f	2.r
.	4a	.	.
.	.	8e	.
.	4a	8g	.
.	.	8f	.
=20	=20	=20	=20
2.r	4a	8e	2r
.	.	8d	.
.	4a	8f	.
.	.	8e	.
.	4a	8d	4F
.	.	8c	.
=21	=21	=21	=21
2.r	4a	2B	4.F
.	4g	.	.
.	.	.	8E
.	4a	4c	8G
.	.	.	8F
=22	=22	=22	=22
2r	8b	8d	8E
.	8r	8r	8D
.	4b	4d	8F
.	.	.	8E
4gg	4cc	4e	8D
.	.	.	8C
=23	=23	=23	=23
4.gg	8dd	8f	4BB
.	8ee	8e	.
.	8ff	8d	4D
8ff#	8dd	8B	.
8aa	8ff	8d	4BB
8gg	8dd	8B	.
=24	=24	=24	=24
8ff	4b	4d	4GG
8ee	.	.	.
8gg	2r	2r	2r
8ff	.	.	.
8ee	.	.	.
8dd	.	.	.
=25	=25	=25	=25
2cc	8r	8r	4CC
.	8e	8c	.
.	8g	8e	4C
.	8e	8c	.
4ee	8c	8E	4C
.	8e	8c	.
=26	=26	=26	=26
4.g	8f	8d	2.C
.	8d	8B	.
.	8f	8d	.
8a	8d	8B	.
4g	8f	8d	.
.	8d	8B	.
=27	=27	=27	=27
4gg	8e	8c	4CC
.	8G	8E	.
4ee	8c	8G	4C
.	8e	8c	.
4cc	8g	8e	4C
.	8e	8c	.
=28	=28	=28	=28
4.g	8f	8d	2.C
.	8d	8B	.
.	8f	8d	.
8a	8d	8B	.
4g	8f	8d	.
.	8d	8B	.
=29	=29	=29	=29
4.ee	4e	4c	4r
.	2g	2e	4C
8g	.	.	.
8ee	.	.	4C
8g	.	.	.
=30	=30	=30	=30
4.ee	4e	4c	4r
.	2g#	2e	4C
8g#	.	.	.
8ee	.	.	4C
8g#	.	.	.
=31	=31	=31	=31
4.ee	4e	4c	4r
.	2a	2e	4C
8a	.	.	.
8ee	.	.	4C
8a	.	.	.
=32	=32	=32	=32
8ee	4e	4c	4C
8a#	.	.	.
8ee	2a#	2e	4C
8a#	.	.	.
8ee	.	.	4C
8a#	.	.	.
=33	=33	=33	=33
8r	8b	8d#	4BB
8b	8f#	8d#	.
8bb	8a	8f#	4r
8bb	8a	8f#	.
8bb	8a	8f#	4E
8bb	8g	8e	.
=34	=34	=34	=34
8r	8g	8e	4B
8b	8f#	8d#	.
8bb	8a	8f#	4r
8bb	8a	8f#	.
8bb	8a	8f#	4E
8bb	8g	8e	.
=35	=35	=35	=35
8r	8g	8e	4B
8b	8f#	8d#	.
8bb	8a	8f#	4r
8bb	8a	8f#	.
8bb	8a	8f#	4E
8bb	8g	8e	.
=36	=36	=36	=36
4bb	4f#	4d#	4BB
2r	2r	2r	2r
=37	=37	=37	=37
2b	2.g#	[2.e	2.E
4b#	.	.	.
=38	=38	=38	=38
4cc#	4a	4e]	4A
2r	2r	2r	2r
=39	=39	=39	=39
12cc#	2r	2r	2r
12dd#	.	.	.
12ee	.	.	.
12dd#	.	.	.
12cc#	.	.	.
12b	.	.	.
12a	4f#	[4B	4D#
12b	.	.	.
12a	.	.	.
=40	=40	=40	=40
4g#	4e	4B]	4E
4b	4g#	2r	2r
4r	4r	.	.
=41	=41	=41	=41
2b	2B	[2.E	2.GG#
4b#	4B#	.	.
=42	=42	=42	=42
4cc#	4c#	4E]	4AA
2r	2r	2r	2r
=43	=43	=43	=43
12ee	2r	2r	2r
12dd#	.	.	.
12cc#	.	.	.
12b	.	.	.
12a	.	.	.
12g#	.	.	.
12f#	4d#	4A	4BB
12g#	.	.	.
12f#	.	.	.
=44	=44	=44	=44
8e	4e	4G#	4EE
8g#	.	.	.
8b	2r	2r	2r
8ee	.	.	.
8gg#	.	.	.
8bb	.	.	.
=45	=45	=45	=45
4eee	2b	2.g#	2.e
2r	.	.	.
.	4b#	.	.
=46	=46	=46	=46
2ee	4cc#	2.a	4A
.	2r	.	2r
4ee#	.	.	.
=47	=47	=47	=47
2ff#	12cc#	4a#	2.r
.	12dd#	.	.
.	12ee	.	.
.	12dd#	4b	.
.	12cc#	.	.
.	12b	.	.
4ff##	12a	4d#	.
.	12b	.	.
.	12a	.	.
=48	=48	=48	=48
12gg#	4g#	4e	2E
12bb	.	.	.
12aa	.	.	.
12gg#	4b	2r	.
12ff#	.	.	.
12ee	.	.	.
12dd#	4r	.	4F#
12ee	.	.	.
12cc#	.	.	.
=49	=49	=49	=49
2b	12b	2.G#	4G#
.	12cc#	.	.
.	12b	.	.
.	12a	.	2r
.	12g#	.	.
.	12f#	.	.
4b#	12e	.	.
.	12f#	.	.
.	12d	.	.
=50	=50	=50	=50
4cc#	4c#	12A	2AA
.	.	12c#	.
.	.	12B	.
[2ff#	4r	12A	.
.	.	12G#	.
.	.	12F#	.
.	[4cc#	12E	4AA#
.	.	12F#	.
.	.	12E	.
=51	=51	=51	=51
8ff#]	12cc#]	4D#	2BB
.	12dd#	.	.
8dd#	12cc#	.	.
[2gg#	12b	4r	.
.	12a	.	.
.	12g#	.	.
.	12f#	[4d#	4BB#
.	12g#	.	.
.	12f#	.	.
=52	=52	=52	=52
8gg#]	4e	12d#]	2C#
.	.	12e	.
8ee	.	12d#	.
[2aa	4r	12c#	.
.	.	12B	.
.	.	12A	.
.	[4ee	12G#	4C#
.	.	12A	.
.	.	12G#	.
=53	=53	=53	=53
8aa]	12ee]	4F#	2D#
.	12ff#	.	.
8ff#	12ee	.	.
[2bb	12dd#	4r	.
.	12cc#	.	.
.	12b	.	.
.	12a	4f#	4D#
.	12b	.	.
.	12a	.	.
=54	=54	=54	=54
8bb]	4g#	4e	4E
8gg#	.	.	.
8ccc#	4gg#	2ee	2r
8gg#	.	.	.
8aa	[4ff#	.	.
8ff#	.	.	.
=55	=55	=55	=55
8bb	4ff#]	2dd#	2.r
8ff#	.	.	.
8gg#	2ee	.	.
8ee	.	.	.
8aa	.	[4cc#	.
8ee	.	.	.
=56	=56	=56	=56
8ff#	2dd#	4cc#]	2.r
8dd#	.	.	.
8gg#	.	2b	.
8dd#	.	.	.
8ee	[4cc#	.	.
8cc#	.	.	.
=57	=57	=57	=57
8ff#	4cc#]	2a	2.r
8cc#	.	.	.
8dd#	2b	.	.
8b	.	.	.
8ee	.	4g#	.
8b	.	.	.
=58	=58	=58	=58
8a	4r	4r	4r
8f#	.	.	.
8c#	[2a	[2f#	4F#
8a	.	.	.
8c	.	.	4E
8a	.	.	.
=59	=59	=59	=59
8B	4a]	4f#]	2D#
8a	.	.	.
8cc#	4cc#	4a	.
8a	.	.	.
8b	4b	4g#	4E
8g#	.	.	.
=60	=60	=60	=60
8a	4a	4f#	4A
8f#	.	.	.
8g#	4g#	4e	4B
8e	.	.	.
8f#	4f#	4d#	4BB
8d#	.	.	.
=61	=61	=61	=61
8e	4e	4e	4E
8g#	.	.	.
8b	2r	2r	2r
8ee	.	.	.
8gg#	.	.	.
8bb	.	.	.
=62	=62	=62	=62
8aa	4r	4r	2.r
8ff#	.	.	.
8cc#	4a	4f#	.
8aa	.	.	.
8cc	4g	4e	.
8aa	.	.	.
=63	=63	=63	=63
8b	2f#	2d#	2.r
8ff#	.	.	.
8aa	.	.	.
8b	.	.	.
8cc	4g	4e	.
8aa	.	.	.
=64	=64	=64	=64
8b	2f#	2d#	2.r
8ff#	.	.	.
8aa	.	.	.
8b	.	.	.
8cc	4g	4e	.
8aa	.	.	.
=65	=65	=65	=65
8b	2.f#	2.d#	2.r
8ff#	.	.	.
8aa	.	.	.
8aa	.	.	.
8aa	.	.	.
8aa	.	.	.
=66	=66	=66	=66
8r	2.g	[2.e	2.c#
8ee	.	.	.
8aa#	.	.	.
8aa#	.	.	.
8aa#	.	.	.
8aa#	.	.	.
=67	=67	=67	=67
8r	4g#	4e]	4B
8bb	.	.	.
8ff#	8a	4d#	4B#
8aa	8f#	.	.
8ee	4e	4e	4c#
8gg#	.	.	.
=68	=68	=68	=68
8a	4cc#	4a	4A
8ff#	.	.	.
8g#	4b	4g#	4B
8ee	.	.	.
8f#	4a	4f#	4BB
8dd#	.	.	.
=69	=69	=69	=69
4.ee	[2.g#	2.c#	2.r
8dd#	.	.	.
8ff#	.	.	.
8ee	.	.	.
=70	=70	=70	=70
8dd	2g#]	2B	2.r
8cc#	.	.	.
8ee	.	.	.
8dd	.	.	.
8cc#	4e	4G#	.
8b#	.	.	.
=71	=71	=71	=71
4cc#	4e	4A	2.r
8r	8r	2r	.
8cc#	8a	.	.
8dd#	8b	.	.
8ee	8cc#	.	.
=72	=72	=72	=72
8b	8g#	4B	2.r
8cc#	8a	.	.
8b	8g#	4B	.
8g#	8e	.	.
8a	8f#	4B	.
8f#	8d#	.	.
=73	=73	=73	=73
4e	4.ee	[2.e	4.c#
2r	.	.	.
.	8dd#	.	8B#
.	8ff#	.	8d
.	8ee	.	8c#
=74	=74	=74	=74
2.r	8dd	2.e]	8B
.	8cc#	.	8A#
.	8ee	.	8c#
.	8dd	.	8B
.	8cc#	.	8A
.	8b#	.	8G#
=75	=75	=75	=75
4.ccc#	4cc#	4.a	4A
.	2r	.	2r
8bb#	.	8g#	.
8ddd	.	8b	.
8ccc#	.	8a	.
=76	=76	=76	=76
8bb	[2.c#	8g#	2.r
8aa#	.	8f##	.
8ccc#	.	8a#	.
8bb	.	8g#	.
8aa	.	8f#	.
8gg#	.	8e#	.
=77	=77	=77	=77
2.aa	2.c#]	2.f#	4.F#
.	.	.	8E#
.	.	.	8G#
.	.	.	8F#
=78	=78	=78	=78
2.aa#	2.cc#	[2.f#	8E
.	.	.	8D#
.	.	.	8F#
.	.	.	8E
.	.	.	8D#
.	.	.	8C#
=79	=79	=79	=79
8aa#	4b	2f#]	4D#
8bb	.	.	.
8bb	4dd#	.	4BB
8aa	.	.	.
8aa	4ee	[4e	4C#
8gg#	.	.	.
=80	=80	=80	=80
8gg#	4cc#	8e]	4AA
8ff#	.	8f#	.
8ff#	2b	4g#	4BB
8ee	.	.	.
8ee	.	4f#	4A
8dd#	.	.	.
=81	=81	=81	=81
8r	8r	8r	8G#
8bb	8b	8e	8r
8r	8r	8r	8F#
8aa	8dd#	8b	8r
8r	8r	8r	8E
8gg#	8ee	8b	8r
=82	=82	=82	=82
8r	8r	8r	8A
8ff#	8cc#	8a	8r
8r	8r	8r	8B
8ee	8b	8g#	8r
8r	8r	8r	8BB
8dd#	8a	8f#	8r
=83	=83	=83	=83
4ee	4g#	4e	4E
4r	2r	2r	2r
4e	.	.	.
=84	=84	=84	=84
4.e	[2.e	2G#	2.C#
8g#	.	.	.
8a	.	4E	.
8g#	.	.	.
=85	=85	=85	=85
4f#	2.e_	4c#	2.AA
4r	.	4r	.
[4cc#	.	4F#	.
=86	=86	=86	=86
4cc#]	4e]	4.F#	2.BB
4b	4d#	.	.
.	.	8A#	.
4d#	4B	8B	.
.	.	8A	.
=87	=87	=87	=87
4e	4B	4G#	4EE
4r	4r	4r	4r
4bb	4g	4ee	4E
=88	=88	=88	=88
4.bb	2g	2ee	2E
8aa#	.	.	.
8ccc	4r	4r	4r
8bb	.	.	.
=89	=89	=89	=89
8aa	2r	2r	2.r
8gg	.	.	.
8bb	.	.	.
8aa	.	.	.
8gg	4g	4e	.
8ff#	.	.	.
=90	=90	=90	=90
4ee	4.g	4.e	2.r
4ee	.	.	.
.	8f#	8d#	.
4ee	8a	8f#	.
.	8g	8e	.
=91	=91	=91	=91
4ee	8f#	8d	2r
.	8e	8c#	.
4ee	8g	8e	.
.	8f#	8d	.
4ee	8e	8c#	4F#
.	8d	8B	.
=92	=92	=92	=92
4ee	4c#	4A#	4.F#
4e	4c#	4A#	.
.	.	.	8E#
4e	4c#	4A#	8G
.	.	.	8F#
=93	=93	=93	=93
2e	2c#	2A#	8E
.	.	.	8D#
.	.	.	8F#
.	.	.	8E
4r	4r	4r	8D
.	.	.	8C#
=94	=94	=94	=94
4gg	4ee	4cc#	4BB
4ff#	4ee	4cc#	4AA#
4ff#	4ee	4cc#	4AA#
=95	=95	=95	=95
4ff#	4ee	4cc#	4AA#
4r	2r	2r	2r
4b	.	.	.
=96	=96	=96	=96
4.b	[2.b	2.f#	2.D
8dd	.	.	.
8ee	.	.	.
8dd	.	.	.
=97	=97	=97	=97
4cc#	2.b_	4g	2.E
4r	.	4r	.
[4gg	.	4c#	.
=98	=98	=98	=98
4gg]	4b]	4.c#	2.F#
4ff#	4a#	.	.
.	.	8e	.
4a#	4f#	8f#	.
.	.	8e	.
=99	=99	=99	=99
4b	4f#	4d	4BB
4r	4r	4r	4r
4gg	4b	4d	4G
=100	=100	=100	=100
4.gg	8b	8d	4G
.	8g	8B	.
.	4.dd	4.b	4GG
8dd	.	.	.
8bb	.	.	[4G
8gg	8d	8B	.
=101	=101	=101	=101
4.ccc	8f#	8A	4G]
.	8a	8f#	.
.	4.cc	4.a	4GG
8ff#	.	.	.
8aa	.	.	[4G
8dd	8f#	8c	.
=102	=102	=102	=102
4.gg	8g	8B	4G]
.	8b	8g	.
.	4.dd	4.b	4GG
8dd	.	.	.
8bb	.	.	[4G
8gg	8d	8B	.
=103	=103	=103	=103
4.ccc	8f#	8A	4G]
.	8a	8f#	.
.	4.cc	4.a	4GG
8ff#	.	.	.
8aa	.	.	[4G
8dd	8f#	8c	.
=104	=104	=104	=104
8gg	4g	4B	4G]
8bb	.	.	.
8dd	2r	2r	2r
8gg	.	.	.
8b	.	.	.
8dd	.	.	.
=105	=105	=105	=105
8g	2r	2r	2.r
8b	.	.	.
8d	.	.	.
8g	.	.	.
8B	4ff	4d	.
8d	.	.	.
=106	=106	=106	=106
4G	4.ff	4.d	2.r
2r	.	.	.
.	8ee	8c#	.
.	8gg	8e	.
.	8ff	8d	.
=107	=107	=107	=107
2r	8ee	8c	2r
.	8dd	8B	.
.	8ff	8d	.
.	8ee	8c	.
4ff	8dd	8B	4d
.	8cc	8A	.
=108	=108	=108	=108
4.ff	4cc	4A	4.d
.	4b	4G	.
8ee	.	.	8c#
8gg	4b	4G	8e
8ff	.	.	8d
=109	=109	=109	=109
8ee	2b	2G	8c
8dd	.	.	8B
8ff	.	.	8d
8ee	.	.	8c
8dd	4ff	4d	8B
8cc	.	.	8A
=110	=110	=110	=110
4cc	4.ff	4.d	4A
4b	.	.	4G#
.	8ee	8c#	.
4b	8gg	8e	4G#
.	8ff	8d	.
=111	=111	=111	=111
2b	8ee	8c#	2G#
.	8dd	8B	.
.	8ee	8c#	.
.	8dd	8B	.
4dd	8cc#	8A	4B
.	8b	8G#	.
=112	=112	=112	=112
4.dd	4a	4F#	4.B
.	4g#	4E#	.
8cc#	.	.	8A#
8ee	4g#	4E#	8c#
8dd	.	.	8B
=113	=113	=113	=113
8cc#	2g#	2E#	8A
8b	.	.	8G#
8cc#	.	.	8A
8b	.	.	8G#
8a	4b	4G#	8F#
8g#	.	.	8E#
=114	=114	=114	=114
4f#	4.b	4.G#	4D#
4e#	.	.	4C#
.	8a#	8F##	.
4e#	8cc#	8A#	4C#
.	8b	8G#	.
=115	=115	=115	=115
2e#	8a	8c#	2.C#
.	8g#	8B	.
.	8a	8c#	.
.	8g#	8B	.
4cc#	8f#	8A	.
.	8e#	8G#	.
=116	=116	=116	=116
2aa	8f#	4F#	8F#
.	4ff#	.	8F#
.	.	2c#	8F#
.	4ff#	.	8F#
4aa#	.	.	8E
.	[8ff#	.	8E
=117	=117	=117	=117
2bb	8ff#]	4B	8D#
.	4ff#	.	8D#
.	.	2f#	8D#
.	4ff#	.	8D#
4bb#	.	.	8D
.	8ff#	.	8D
=118	=118	=118	=118
4.ccc#	4ee#	4g#	4C#
.	2r	2r	2r
8bb#	.	.	.
8ccc#	.	.	.
8gg#	.	.	.
=119	=119	=119	=119
8aa	2.r	2.r	2.r
8ee#	.	.	.
8ff#	.	.	.
8cc#	.	.	.
8dd	.	.	.
8b#	.	.	.
=120	=120	=120	=120
4.cc#	4.cc#	4.cc#	4.c#
8b#	8b#	8b#	8B#
8cc#	8cc#	8cc#	8c#
8g#	8g#	8g#	8G#
=121	=121	=121	=121
8a	8a	8a	8A
8e#	8e#	8e#	8E#
8f#	8f#	8f#	8F#
8c#	8c#	8c#	8C#
8d	8d	8d	8D
8B#	8B#	8B#	8BB#
=122	=122	=122	=122
4c#	4c#	4c#	4C#
4r	2r	2r	2r
4c#	.	.	.
=123	=123	=123	=123
4.c#	4G#	4E#	4C#
.	2r	2r	2r
8e#	.	.	.
8g#	.	.	.
8e#	.	.	.
=124	=124	=124	=124
4c#	4r	4r	4r
4r	4G#	4E#	4C#
4c#	4G#	4E#	4C#
=125	=125	=125	=125
4.c#	4G#	4E	4C#
.	2r	2r	2r
8e	.	.	.
8g#	.	.	.
8e	.	.	.
=126	=126	=126	=126
4c#	4r	4r	4r
4r	4G#	4E	4C#
4c#	4G#	4E	4C#
=127	=127	=127	=127
4.c#	[2.G	[2.E	[2.AA
8e	.	.	.
8g	.	.	.
8e	.	.	.
=128	=128	=128	=128
2c#	4G]	4E]	4AA]
.	4e	4G	4AA#
4d	4d	4F#	4BB
=129	=129	=129	=129
4.d	4d	2F#	2.BB
.	4r	.	.
8f#	.	.	.
8g	4B	[4D	.
8f#	.	.	.
=130	=130	=130	=130
4e	4.B	4D]	2.GG
4r	.	4B	.
.	8d	.	.
[4b	8e	4E	.
.	8d	.	.
=131	=131	=131	=131
4b]	2c#	4.E	2.AA
4a	.	.	.
.	.	8G#	.
4c#	4e	8A	.
.	.	8G	.
=132	=132	=132	=132
4d	4d	4F#	4DD
4r	2r	2r	2r
4d	.	.	.
=133	=133	=133	=133
4.d	2r	2r	2.r
8f#	.	.	.
8g	4A	4F#	.
8f#	.	.	.
=134	=134	=134	=134
4e	4.B	4.G	2r
4r	.	.	.
.	8d	8B	.
4e	8e	8c#	4G#
.	8d	8B	.
=135	=135	=135	=135
4.e	4c#	4A	4A
.	4r	4r	2r
8g#	.	.	.
8a	4c#	4A	.
8g	.	.	.
=136	=136	=136	=136
4f#	4.c#	4.A#	2r
4r	.	.	.
.	8e	8c#	.
4f#	8f#	8d	4A#
.	8e	8c#	.
=137	=137	=137	=137
4.f#	4d	4B	4B
.	4r	4r	2r
8a#	.	.	.
8b	4d	4B	.
8a	.	.	.
=138	=138	=138	=138
4g#	4.d#	4.B#	2r
4r	.	.	.
.	8f#	8d#	.
[4g#	8g#	8e	4BB#
.	8f#	8d#	.
=139	=139	=139	=139
4g#]	4e	4c#	4.C#
[2cc#	4r	4r	.
.	.	.	8E
.	4c#	4G#	8F#
.	.	.	8E
=140	=140	=140	=140
4cc#]	4.d#	4.F#	4D#
[2b	.	.	4r
.	8f#	8d#	.
.	8g#	8e	4GG#
.	8f#	8d	.
=141	=141	=141	=141
4b]	4e	4c#	4.AA
[2a	4r	4r	.
.	.	.	8C#
.	4A	4E	8D
.	.	.	8C#
=142	=142	=142	=142
4a]	4.B	4.D	4BB
[2g#	.	.	4r
.	8d	8B	.
.	8e	8c#	4EE
.	8d	8B	.
=143	=143	=143	=143
4g#]	2c#	4.A	4.FF#
4.f#	.	.	.
.	.	8c#	8A
.	8r	8d	8B
8ff#	8a	8c#	8A
=144	=144	=144	=144
8gg#	8b	4.B	4.G#
8ff#	8a	.	.
4.ee	4.g#	.	.
.	.	8B	8G#
.	.	8c#	8A
8ee	8g#	8B	8G#
=145	=145	=145	=145
8ff#	8a	4.A	4.F#
8ee	8g	.	.
4.dd	4.f#	.	.
.	.	8A	8F#
.	.	8B	8G
8dd	8f#	8A	8F#
=146	=146	=146	=146
8ee	8g	4.G	4.E
8dd	8f#	.	.
4.cc#	4.e	.	.
.	.	8G	8E
.	.	8A	8F#
8cc#	8e	8G	8E
=147	=147	=147	=147
8dd	8f#	2F#	[2.D
8ee	8g	.	.
8dd	8f#	.	.
8cc#	8e	.	.
8b	8d	4f#	.
8a	8c#	.	.
=148	=148	=148	=148
8g#	8B	[2.e	2D]
8e	8G#	.	.
8f#	8A	.	.
8g#	8B	.	.
8a	8c#	.	4C#
8b	8e	.	.
=149	=149	=149	=149
8cc#	8a	4e]	4BB
8dd	8b	.	.
8ff#	8dd	4e	4AA
8ee	8cc#	.	.
8dd	8b	4e	4C#
8cc#	8a	.	.
=150	=150	=150	=150
4b	4g#	4e	[2.E
4r	4ee	4r	.
4ee	[4ee	4g#	.
=151	=151	=151	=151
4.ff#	4ee]	4a#	2.E_
.	[2dd	4b	.
8gg#	.	.	.
8aa	.	4a	.
8bb	.	.	.
=152	=152	=152	=152
4.ee	4dd]	4g#	2.E_
.	[2cc#	4a	.
8ff#	.	.	.
8gg#	.	4g#	.
8aa	.	.	.
=153	=153	=153	=153
8dd	4cc#]	4f#	2.E]
8ee	.	.	.
8dd	4b	4g#	.
8b	.	.	.
8cc#	4a	4a	.
8a	.	.	.
=154	=154	=154	=154
4b	4g#	4e	[2.EE
4ee	4r	4r	.
[4ee	4e	4G#	.
=155	=155	=155	=155
4ee]	4.f#	4A#	2.EE_
[2dd	.	4B	.
.	8g#	.	.
.	8a	4A	.
.	8b	.	.
=156	=156	=156	=156
4dd]	4.e	4G#	2.EE_
[2cc	.	4A	.
.	8f#	.	.
.	8g#	4G	.
.	8a	.	.
=157	=157	=157	=157
4cc]	8d	4F#	2.EE_
.	8e	.	.
4b	8d	4G#	.
.	8B	.	.
4a	8c	4A	.
.	8A	.	.
=158	=158	=158	=158
8g#	2d	2B	4EE]
8a	.	.	.
8g#	.	.	2FF
8b	.	.	.
8dd	4B	4G#	.
8b	.	.	.
=159	=159	=159	=159
8g#	2d	2B	4EE
8a	.	.	.
8g#	.	.	2FF
8b	.	.	.
8dd	4B	4G#	.
8b	.	.	.
=160	=160	=160	=160
4g#	8d	8B	4EE
.	8c#	8A	.
2r	8B	8G#	2r
.	8A	8F#	.
.	8G#	8E	.
.	8A	8F#	.
=161	=161	=161	=161
2r	8B	8G#	2r
.	8c#	8A	.
.	8d	8B	.
.	8e	8c#	.
4ee	8f#	8d	4E
.	8g#	8B	.
=162	=162	=162	=162
4.ee	2a	2c#	2AA
8dd#	.	.	.
8ff#	4r	4r	4r
8ee	.	.	.
=163	=163	=163	=163
8dd	2.r	2.r	2.r
8cc#	.	.	.
8ee	.	.	.
8dd	.	.	.
8cc#	.	.	.
8b	.	.	.
=164	=164	=164	=164
4a	4e	4e	4c#
4b	4e 4d	4g#	4B
4cc#	4e 4c#	4a	4A
=165	=165	=165	=165
4dd	4e 4B	4b	4G#
4r	4r	4r	4r
4dd	4a	4A	4F
=166	=166	=166	=166
4.dd	2g#	2B	2E
8cc#	.	.	.
8ee	4r	4r	4r
8dd	.	.	.
=167	=167	=167	=167
8cc#	2.r	2.r	2.r
8b	.	.	.
8dd	.	.	.
8cc#	.	.	.
8b	.	.	.
8a	.	.	.
=168	=168	=168	=168
4g#	4e	4e	2.E
4a	4f#	4d#	.
4b	4g#	4d	.
=169	=169	=169	=169
4cc#	4a	4c#	4AA
4r	4r	4r	4r
4A	4A	4A	4AA
=170	=170	=170	=170
4.A	4.A	4.A	4.AA
8c#	8c#	8c#	8C#
8d	8d	8d	8D
8c#	8c#	8c#	8C#
=171	=171	=171	=171
4B	4B	4B	4BB
4r	4r	4r	4r
4B	4B	4B	4BB
=172	=172	=172	=172
4.B	4.B	4.B	4.BB
8d#	8d#	8d#	8D#
8e	8e	8e	8E
8d	8d	8d	8D
=173	=173	=173	=173
4c#	4c#	4c#	4C#
4r	4r	4r	4r
4aa	4a	4e	4c#
=174	=174	=174	=174
4.aa	[2.a	2.e	2.c#
8ccc#	.	.	.
8bb	.	.	.
8aa	.	.	.
=175	=175	=175	=175
8gg#	4a]	4d	4d
8ff#	.	.	.
8ee	8g#	2r	2r
8dd	8f#	.	.
8cc#	8e	.	.
8b	8d	.	.
=176	=176	=176	=176
2a	8c#	2r	4E
.	8e	.	.
.	8c#	.	4E
.	8e	.	.
8cc#	8d	4G#	4E
8b	8e	.	.
=177	=177	=177	=177
4a	4c#	4A	4AA
2r	4r	2r	2r
.	4a	.	.
=178	=178	=178	=178
2.r	4.a	2.r	2.r
.	8g#	.	.
.	8b-	.	.
.	8a	.	.
=179	=179	=179	=179
2.r	8g	2r	2.r
.	8f	.	.
.	8a	.	.
.	8g	.	.
.	8f	4B-	.
.	8e	.	.
=180	=180	=180	=180
2.r	4d	4.B-	2.r
.	4d	.	.
.	.	8A	.
.	4d	8c	.
.	.	8B-	.
=181	=181	=181	=181
2.r	4d	8A	2r
.	.	8G	.
.	4d	8B-	.
.	.	8A	.
.	4d	8G	4BB-
.	.	8F	.
=182	=182	=182	=182
2.r	4d	2E	4.BB-
.	4c	.	.
.	.	.	8AA
.	4d	4F	8C
.	.	.	8BB-
=183	=183	=183	=183
2r	8e	8G	8AA
.	8r	8r	8GG
.	4e	4G	8BB-
.	.	.	8AA
4ccc	4f	4A	8GG
.	.	.	8FF
=184	=184	=184	=184
4.ccc	8g	8B-	4EE
.	8a	8A	.
.	8b-	8G	4GG
8bb	8g	8E	.
8ddd	8b-	8G	4EE
8ccc	8g	8E	.
=185	=185	=185	=185
8bb-	4e	4G	4CC
8aa	.	.	.
8ccc	2r	2r	2r
8bb-	.	.	.
8aa	.	.	.
8gg	.	.	.
=186	=186	=186	=186
2ff	8r	8r	4FF
.	8a	8f	.
.	8cc	8a	4F
.	8a	8f	.
4aa	8f	8A	4F
.	8a	8f	.
=187	=187	=187	=187
4.cc	8b-	8g	2.F
.	8g	8e	.
.	8b-	8g	.
8dd	8g	8e	.
4cc	8b-	8g	.
.	8g	8e	.
=188	=188	=188	=188
4ccc	8a	8f	4FF
.	8c	8A	.
4aa	8f	8c	4F
.	8a	8f	.
4ff	8cc	8a	4F
.	8a	8f	.
=189	=189	=189	=189
4.cc	8b-	8g	2.F
.	8g	8e	.
.	8b-	8g	.
8dd	8g	8e	.
4cc	8b-	8g	.
.	8g	8e	.
=190	=190	=190	=190
4.aa	4a	4f	4r
.	2cc	2a	4F
8cc	.	.	.
8aa	.	.	4F
8cc	.	.	.
=191	=191	=191	=191
4.aa	4a	4f	4r
.	2cc#	2a	4F
8cc#	.	.	.
8aa	.	.	4F
8cc#	.	.	.
=192	=192	=192	=192
4.aa	4a	4f	4r
.	2dd	2a	4F
8dd	.	.	.
8aa	.	.	4F
8dd	.	.	.
=193	=193	=193	=193
8aa	4a	4f	4F
8dd#	.	.	.
8aa	2dd#	2a	4F
8dd#	.	.	.
8aa	.	.	4F
8dd#	.	.	.
=194	=194	=194	=194
8r	8ee	8g#	4E
8ee	8b	8g#	.
8eee	8dd	8b	4r
8eee	8dd	8b	.
8eee	8dd	8b	4A
8eee	8cc	8a	.
=195	=195	=195	=195
8r	8cc	8a	4e
8ee	8b	8g#	.
8eee	8dd	8b	4r
8eee	8dd	8b	.
8eee	8dd	8b	4A
8eee	8cc	8a	.
=196	=196	=196	=196
8r	8cc	8a	4e
8ee	8b	8g#	.
8eee	8dd	8b	4r
8eee	8dd	8b	.
8eee	8dd	8b	4A
8eee	8cc	8a	.
=197	=197	=197	=197
4eee	4b	4g#	4E
2r	2r	2r	2r
=198	=198	=198	=198
2e	2.c#	[2.A	2.AA
4e#	.	.	.
=199	=199	=199	=199
4f#	4d	4A]	4D
2r	2r	2r	2r
=200	=200	=200	=200
12f#	2r	2r	2r
12g#	.	.	.
12a	.	.	.
12g#	.	.	.
12f#	.	.	.
12e	.	.	.
12d	4B	4E	4GG#
12e	.	.	.
12d	.	.	.
=201	=201	=201	=201
4c#	4A	4E	4AA
4e	4c#	2r	2r
4r	4r	.	.
=202	=202	=202	=202
2ee	2e	[2.a	2.c#
4ee#	4e#	.	.
=203	=203	=203	=203
4ff#	4f#	4a]	4d
2r	2r	2r	2r
=204	=204	=204	=204
12aa	2r	2r	2r
12gg#	.	.	.
12ff#	.	.	.
12ee	.	.	.
12dd	.	.	.
12cc#	.	.	.
12b	4g#	4d	4E
12cc#	.	.	.
12b	.	.	.
=205	=205	=205	=205
8a	4a	4c#	4AA
8cc#	.	.	.
8ee	2r	2r	2r
8aa	.	.	.
8ccc#	.	.	.
8eee	.	.	.
=206	=206	=206	=206
4aa	2ee	2.cc#	2.A
2r	.	.	.
.	4ee#	.	.
=207	=207	=207	=207
2aa	4ff#	2.dd	4D
.	2r	.	2r
4aa#	.	.	.
=208	=208	=208	=208
2bb	12ff#	4dd#	2.r
.	12gg#	.	.
.	12aa	.	.
.	12gg#	4ee	.
.	12ff#	.	.
.	12ee	.	.
4bb#	12dd	4g#	.
.	12ee	.	.
.	12dd	.	.
=209	=209	=209	=209
12ccc#	4cc#	4a	2A
12eee	.	.	.
12ddd	.	.	.
12ccc#	4ee	2r	.
12bb	.	.	.
12aa	.	.	.
12gg#	4r	.	4B
12aa	.	.	.
12ff#	.	.	.
=210	=210	=210	=210
2ee	12ee	2.c#	4c#
.	12ff#	.	.
.	12ee	.	.
.	12dd	.	2r
.	12cc#	.	.
.	12b	.	.
4ee#	12a	.	.
.	12b	.	.
.	12g	.	.
=211	=211	=211	=211
4ff#	4f#	12d	2D
.	.	12f#	.
.	.	12e	.
[2bb	4r	12d	.
.	.	12c#	.
.	.	12B	.
.	[4ff#	12A	4D#
.	.	12B	.
.	.	12A	.
=212	=212	=212	=212
8bb]	12ff#]	4G#	2E
.	12gg#	.	.
8gg#	12ff#	.	.
[2ccc#	12ee	4r	.
.	12dd	.	.
.	12cc#	.	.
.	12b	[4g#	4E#
.	12cc#	.	.
.	12b	.	.
=213	=213	=213	=213
8ccc#]	4a	12g#]	2F#
.	.	12a	.
8aa	.	12g#	.
[2ddd	4r	12f#	.
.	.	12e	.
.	.	12d	.
.	[4aa	12c#	4F#
.	.	12d	.
.	.	12c#	.
=214	=214	=214	=214
8ddd]	12aa]	4B	2G#
.	12bb	.	.
8bb	12aa	.	.
[2eee	12gg#	4r	.
.	12ff#	.	.
.	12ee	.	.
.	12dd	4b	4G#
.	12ee	.	.
.	12dd	.	.
=215	=215	=215	=215
8eee]	2cc#	4a	4A
8ccc#	.	.	.
8fff#	.	2a	2r
8ccc#	.	.	.
8ddd	[4b	.	.
8bb	.	.	.
=216	=216	=216	=216
8eee	4b]	2g#	2.r
8bb	.	.	.
8ccc#	2a	.	.
8aa	.	.	.
8ddd	.	[4f#	.
8aa	.	.	.
=217	=217	=217	=217
8bb	2g#	4f#]	2.r
8gg#	.	.	.
8ccc#	.	2e	.
8gg#	.	.	.
8aa	[4f#	.	.
8ff#	.	.	.
=218	=218	=218	=218
8bb	4f#]	2d	2.r
8ff#	.	.	.
8gg#	2e	.	.
8ee	.	.	.
8aa	.	4c#	.
8ee	.	.	.
=219	=219	=219	=219
8dd	4r	4r	4r
8b	.	.	.
8f#	[2d	[2B	4B
8dd	.	.	.
8f	.	.	4A
8dd	.	.	.
=220	=220	=220	=220
8e	4d]	4B]	2G#
8dd	.	.	.
8ff#	4f#	4d	.
8dd	.	.	.
8ee	4e	4c#	4A
8cc#	.	.	.
=221	=221	=221	=221
8dd	4d	4B	4D
8b	.	.	.
8cc#	4c#	4A	4E
8a	.	.	.
8b	4B	4G#	4E
8g#	.	.	.
=222	=222	=222	=222
8a	4A	4A	4AA
8cc#	.	.	.
8ee	2r	2r	2r
8aa	.	.	.
8ccc#	.	.	.
8eee	.	.	.
=223	=223	=223	=223
8ddd	4r	4r	2.r
8bb	.	.	.
8ff#	4dd	4b	.
8ddd	.	.	.
8ff	4cc	4a	.
8ddd	.	.	.
=224	=224	=224	=224
8ee	2b	2g#	2.r
8bb	.	.	.
8ddd	.	.	.
8ee	.	.	.
8ff	4cc	4a	.
8ddd	.	.	.
=225	=225	=225	=225
8ee	2b	2g#	2.r
8bb	.	.	.
8ddd	.	.	.
8ee	.	.	.
8ff	4cc	4a	.
8ddd	.	.	.
=226	=226	=226	=226
8ee	2.b	2.g#	2.r
8bb	.	.	.
8ddd	.	.	.
8ddd	.	.	.
8ddd	.	.	.
8ddd	.	.	.
=227	=227	=227	=227
8r	2.cc	[2.a	2.f#
8aa	.	.	.
8ddd#	.	.	.
8ddd#	.	.	.
8ddd#	.	.	.
8ddd#	.	.	.
=228	=228	=228	=228
8r	4cc#	4a]	4e
8eee	.	.	.
8bb	8dd	4g#	4e#
8ddd	8b	.	.
8aa	4a	4a	4f#
8ccc#	.	.	.
=229	=229	=229	=229
8dd	4ff#	4dd	4d
8bb	.	.	.
8cc#	4ee	4cc#	4e
8aa	.	.	.
8b	4dd	4b	4E
8gg#	.	.	.
=230	=230	=230	=230
4.aa	[2.cc#	2.f#	2.r
8gg#	.	.	.
8bb	.	.	.
8aa	.	.	.
=231	=231	=231	=231
8gg	2cc#]	2e	2.r
8ff#	.	.	.
8aa	.	.	.
8gg	.	.	.
8ff#	4a	4c#	.
8ee#	.	.	.
=232	=232	=232	=232
4ff#	4a	4d	2.r
8r	8r	2r	.
8ff#	8dd	.	.
8gg#	8ee	.	.
8aa	8ff#	.	.
=233	=233	=233	=233
8ee	8cc#	4e	2.r
8ff#	8dd	.	.
8ee	8cc#	4e	.
8cc#	8a	.	.
8dd	8b	4e	.
8b	8g#	.	.
=234	=234	=234	=234
4a	4.aa	[2.a	4.f#
2r	.	.	.
.	8gg#	.	8e#
.	8bb	.	8g
.	8aa	.	8f#
=235	=235	=235	=235
2.r	8gg	2.a]	8e
.	8ff#	.	8d#
.	8aa	.	8f#
.	8gg	.	8e
.	8ff#	.	8d
.	8ee#	.	8c#
=236	=236	=236	=236
4.ff#	4ff#	4.d	4d
.	2r	.	2r
8ee#	.	8c#	.
8gg	.	8e	.
8ff#	.	8d	.
=237	=237	=237	=237
8ee	[2.f#	8c#	2.r
8dd#	.	8B#	.
8ff#	.	8d#	.
8ee	.	8c#	.
8dd	.	8B	.
8cc#	.	8A#	.
=238	=238	=238	=238
2.dd	2.f#_	4B	4.B
.	.	[2b	.
.	.	.	8A#
.	.	.	8c#
.	.	.	8B
=239	=239	=239	=239
2dd#	4f#]	2.b]	8A
.	.	.	8G#
.	2ff#	.	8B
.	.	.	8A
4b	.	.	8G#
.	.	.	8F#
=240	=240	=240	=240
4.bb	2.r	4e	4.G#
.	.	[2ee	.
8aa#	.	.	8F#
8ccc#	.	.	8A
8bb	.	.	8G#
=241	=241	=241	=241
8aa	4b	4ee]	8F#
8gg#	.	.	8E#
8bb	2bb	4dd#	8G#
8aa	.	.	8F#
8gg#	.	4r	8E
8ff##	.	.	8D#
=242	=242	=242	=242
2.gg#	8ee	2.r	4E
.	8dd#	.	.
.	8ff#	.	2e
.	8ee	.	.
.	8dd	.	.
.	8cc#	.	.
=243	=243	=243	=243
2.bb	8dd	4e	2.r
.	8cc#	.	.
.	8ee	2ee	.
.	8dd	.	.
.	8cc#	.	.
.	8b	.	.
=244	=244	=244	=244
8ee	8cc#	2.r	4EE
8dd#	8b	.	.
8ff#	8dd	.	2E
8ee	8cc#	.	.
8dd	8b	.	.
8cc#	8a	.	.
=245	=245	=245	=245
8dd	8b	4E	2.r
8cc#	8a#	.	.
8ee	8cc#	2e	.
8dd	8b	.	.
8cc#	8a	.	.
8b	8g#	.	.
=246	=246	=246	=246
4cc#	4a	8cc#	8A
.	.	8b	8G#
4aa	4e	8ee	8c#
.	.	8dd	8B
4r	4r	8cc#	8A
.	.	8b	8G#
=247	=247	=247	=247
4cc#	4A	8a	8F#
.	.	8g#	8E#
4ccc#	4a	8cc#	8A
.	.	8b	8G#
4r	4r	8a	8F#
.	.	8g#	8E
=248	=248	=248	=248
4a	4d	8f#	8D
.	.	8e#	8C#
4aa	4dd	8a	8F#
.	.	8g#	8E
4r	4r	8f#	8D
.	.	8e	8C#
=249	=249	=249	=249
4ff#	4dd	8d	8BB
.	.	8c#	8AA#
4ddd	4bb	8f#	8D
.	.	8e	8C#
4r	4r	8d	8BB
.	.	8c#	8AA
=250	=250	=250	=250
2.ddd	2.ff	2.B	2.GG#
=251	=251	=251	=251
[2.ccc#	2.ee	2.g	2.AA#
=252	=252	=252	=252
4ccc#]	2dd#	2f#	2BB
[2bb	.	.	.
.	4dd	4f	4G#
=253	=253	=253	=253
4bb]	2cc#	2e	2A
4aa	.	.	.
4dd#	4cc	4a	4F#
=254	=254	=254	=254
4.ee	4cc#	4a	4E
.	2r	2r	2r
8dd#	.	.	.
8ff#	.	.	.
8ee	.	.	.
=255	=255	=255	=255
8dd	2.r	2r	2r
8cc#	.	.	.
8ee	.	.	.
8dd	.	.	.
8cc	.	4B	4D#
8b	.	.	.
=256	=256	=256	=256
[2.a	2r	4c	4E
.	.	4d	4F
.	4c	4d#	4F#
=257	=257	=257	=257
2a]	2c#	2e	2E
8cc#	4e	4g#	4D
8b	.	.	.
=258	=258	=258	=258
8a	4e	4a	4C#
8ee	.	.	.
8ee	4g#	2e	4BB
8dd	.	.	.
8dd	4a	.	4AA
8cc#	.	.	.
=259	=259	=259	=259
8cc#	4f#	4d	4D
8b	.	.	.
8b	4e	4c#	4E
8a	.	.	.
8a	4b	4e	4d
8g#	.	.	.
=260	=260	=260	=260
8r	8r	8r	8c#
8ee	8a	8e	8r
8r	8r	8r	8B
8ddd	8ee	8g#	8r
8r	8r	8r	8A
8ccc#	8ee	8a	8r
=261	=261	=261	=261
8r	8r	8r	8d
8bb	8ff#	8dd	8r
8r	8r	8r	8e
8aa	8ee	8cc#	8r
8r	8r	8r	8E
8gg#	8dd	8b	8r
=262	=262	=262	=262
4aa	4cc#	4a	4A
4r	2r	2r	2r
4a	.	.	.
=263	=263	=263	=263
4.a	2r	2c#	2.F#
8cc#	.	.	.
8dd	4f#	[4A	.
8cc#	.	.	.
=264	=264	=264	=264
4b	4.f#	4A]	2D
4r	.	[2B	.
.	8a#	.	.
[4ff#	8b	.	4D#
.	8a	.	.
=265	=265	=265	=265
4ff#]	2.g#	2.B]	4.E
4ee	.	.	.
.	.	.	8D#
4dd	.	.	8E
.	.	.	8E#
=266	=266	=266	=266
4cc#	4a	4A	4F#
4r	4r	2r	2r
4aa	4a	.	.
=267	=267	=267	=267
4.aa	4.a	8E	8C#
.	.	8e	8c#
.	.	8e	8c#
8ccc#	8cc#	8e	8c#
8ddd	8dd	8e	8c#
8ccc#	8cc#	8e	8c#
=268	=268	=268	=268
8bb	4.b	8F#	8D
8ccc#	.	8f#	8d
8bb	.	8f#	8d
8aa	8cc#	8f#	8d
8gg#	8b	8f#	8d
8ff#	8a	8f#	8d
=269	=269	=269	=269
8ee	8g#	8B	8EE
8ff#	8a	8e	8E
8ee	8g#	8e	8E
8dd	8b	8e	8E
8cc#	8a	8e	8E
8b	8g#	8d	8E
=270	=270	=270	=270
4a	4a	4c#	4AA
2r	2r	2r	2r
==	==	==	==
*-	*-	*-	*-
!!!RWG1: This file contains only pitch and duration data.
!!!RWG2: Transposing instruments are not transposed.
!!!RWG3: Spines may have incompatible meters.
!!!RWG4: Durations of rests and tied notes may be interpreted.
!!!RWG: Key is interpreted using the Humdrum key tool.
!!!AFT: stage1
!!!END: 1997/04/15
!!format changes:
!!content changes:
!!public access: complete
!!!KEY: 1779409771
!!!EMD: Converted from MuseData to Humdrum Dec 16, 2000, by Andreas Kornstaedt using muse2kern.
